svg/food/carrot_fill.svg

<?xml version="1.0" encoding="UTF-8"?>
<svg width="24px" height="24px" viewBox="0 0 24 24" version="1.1" xmlns="http://www.w3.org/2000/svg" xmlns:xlink="http://www.w3.org/1999/xlink">
    <title>carrot_fill</title>
    <g id="Icon" stroke="none" stroke-width="1" fill="none" fill-rule="evenodd">
        <g id="Food" transform="translate(-144.000000, -145.000000)">
            <g id="carrot_fill" transform="translate(144.000000, 145.000000)">
                <path d="M24,0 L24,24 L0,24 L0,0 L24,0 Z M12.5935,23.2578 L12.5819,23.2595 L12.5109,23.295 L12.4919,23.2987 L12.4767,23.295 L12.4057,23.2595 C12.3958,23.2564 12.387,23.259 12.3821,23.2649 L12.378,23.2758 L12.3609,23.7031 L12.3659,23.7235 L12.3769,23.7357 L12.4805,23.8097 L12.4953,23.8136 L12.5071,23.8097 L12.6107,23.7357 L12.6233,23.7197 L12.6267,23.7031 L12.6096,23.2758 C12.6076,23.2657 12.601,23.2593 12.5935,23.2578 Z M12.8584,23.1453 L12.8445,23.1473 L12.6598,23.2397 L12.6499,23.2499 L12.6472,23.2611 L12.6651,23.6906 L12.6699,23.7034 L12.6784,23.7105 L12.8793,23.8032 C12.8914,23.8069 12.9022,23.803 12.9078,23.7952 L12.9118,23.7812 L12.8777,23.1665 C12.8753,23.1546 12.8674,23.147 12.8584,23.1453 Z M12.143,23.1473 C12.1332,23.1424 12.1222,23.1453 12.1156,23.1526 L12.1099,23.1665 L12.0758,23.7812 C12.0751,23.7927 12.0828,23.8019 12.0926,23.8046 L12.1083,23.8032 L12.3092,23.7105 L12.3186,23.7024 L12.3225,23.6906 L12.3404,23.2611 L12.3372,23.2485 L12.3278,23.2397 L12.143,23.1473 Z" id="MingCute" fill-rule="nonzero"></path>
                <path d="M17.6569,2.51465 C18.16975,2.51465 18.5924092,2.90068566 18.6501725,3.3980279 L18.6569,3.51465 L18.6569,3.92876 L19.071,3.51459 C19.4616,3.12405 20.0947,3.12404 20.4853,3.51456 C20.8457615,3.87504 20.8734893,4.44226651 20.5684834,4.83456153 L20.4853,4.92877 L20.0711,5.34302 L20.4853,5.34302 C21.0376,5.34302 21.4853,5.79073 21.4853,6.34302 C21.4853,6.85585143 21.099273,7.27852653 20.6019239,7.3362922 L20.4853,7.34302 L18.4282,7.34302 C19.6933618,9.51936029 19.0821652,12.4087318 16.875311,13.8425253 L16.6703,13.9688 L5.65981,20.3916 C4.36720971,21.14565 2.91937981,19.7579686 3.5456322,18.4579774 L3.60834,18.3401 L10.0311,7.32966 C11.3746853,5.02635706 14.2395734,4.31023394 16.4571461,5.461845 L16.6569,5.57169 L16.6569,3.51465 C16.6569,2.96236 17.1046,2.51465 17.6569,2.51465 Z M12.7071,12.707 C12.3166,12.3165 11.6834,12.3165 11.2929,12.707 C10.9324385,13.0674615 10.9047107,13.6347207 11.2097166,14.0269973 L11.2929,14.1212 L12.3536,15.1819 C12.7441,15.5724 13.3772,15.5724 13.7678,15.1819 C14.1282615,14.8213462 14.1559893,14.2541651 13.8509834,13.8618224 L13.7678,13.7676 L12.7071,12.707 Z M10.5859,7.75728 C10.1953,8.1478 10.1953,8.78097 10.5859,9.17149 L12.0001,10.5857 C12.3906,10.9762 13.0238,10.9762 13.4143,10.5857 C13.8048,10.1952 13.8048,9.56202 13.4143,9.17149 L12.0001,7.75728 C11.6096,7.36675 10.9764,7.36675 10.5859,7.75728 Z" id="形状" fill="#09244B"></path>
            </g>
        </g>
    </g>
</svg>

<svg xmlns="http://www.w3.org/2000/svg" width="24" height="24"><g fill="none" fill-rule="evenodd"><path d="M24 0v24H0V0h24ZM12.594 23.258l-.012.002-.071.035-.02.004-.014-.004-.071-.036c-.01-.003-.019 0-.024.006l-.004.01-.017.428.005.02.01.013.104.074.015.004.012-.004.104-.074.012-.016.004-.017-.017-.427c-.002-.01-.009-.017-.016-.018Zm.264-.113-.014.002-.184.093-.01.01-.003.011.018.43.005.012.008.008.201.092c.012.004.023 0 .029-.008l.004-.014-.034-.614c-.003-.012-.01-.02-.02-.022Zm-.715.002a.023.023 0 0 0-.027.006l-.006.014-.034.614c0 .012.007.02.017.024l.015-.002.201-.093.01-.008.003-.011.018-.43-.003-.012-.01-.01-.184-.092Z"/><path fill="#09244B" d="M17.657 2.515a1 1 0 0 1 .993.883l.007.117v.414l.414-.414a1 1 0 0 1 1.497 1.32l-.083.094-.414.414h.414a1 1 0 0 1 .117 1.993l-.117.007h-2.057c1.265 2.176.654 5.066-1.553 6.5l-.205.126-11.01 6.423c-1.293.754-2.74-.634-2.114-1.934l.062-.118 6.423-11.01c1.344-2.304 4.209-3.02 6.426-1.868l.2.11V3.515a1 1 0 0 1 1-1Zm-4.95 10.192a1 1 0 0 0-1.497 1.32l.083.094 1.06 1.06a1 1 0 0 0 1.498-1.32l-.083-.093-1.06-1.061Zm-2.121-4.95a1 1 0 0 0 0 1.414L12 10.586a1 1 0 0 0 1.414-1.415L12 7.757a1 1 0 0 0-1.414 0Z"/></g></svg>
